images/behance.svg

<svg enable-background="new 0 0 97.75 97.75" height="512" viewBox="0 0 97.75 97.75" width="512" xmlns="http://www.w3.org/2000/svg"><g fill="#fff"><path d="m39.337 38.729c0-4.611-3.137-4.611-3.137-4.611h-1.661-11.245v9.894h12.106c2.092-.001 3.937-.67 3.937-5.283z"/><path d="m36.201 50.846h-12.907v11.85h12.311c1.852-.053 5.27-.633 5.27-5.76 0-6.152-4.674-6.09-4.674-6.09z"/><path d="m69.243 44.011c-6.849 0-7.804 6.835-7.804 6.835h14.565c.001 0 .088-6.835-6.761-6.835z"/><path d="m48.875 0c-26.993 0-48.875 21.883-48.875 48.875s21.882 48.875 48.875 48.875 48.875-21.883 48.875-48.875-21.882-48.875-48.875-48.875zm10.656 28.848h18.294v5.46h-18.294zm-9.246 28.638c0 13.533-14.084 13.088-14.084 13.088h-12.907-.379-9.787v-44.338h9.787.379 12.906c7.012 0 12.547 3.871 12.547 11.805 0 7.935-6.766 8.438-6.766 8.438 8.919 0 8.304 11.007 8.304 11.007zm19.045 6.993c7.37 0 7.109-4.77 7.109-4.77h7.803c0 12.659-15.172 11.792-15.172 11.792-18.207 0-17.036-16.95-17.036-16.95s-.014-17.034 17.034-17.034c17.947 0 15.434 19.245 15.434 19.245h-22.975c0 8.239 7.803 7.717 7.803 7.717z"/></g></svg>

<?xml version="1.0" encoding="iso-8859-1"?>
<!-- Generator: Adobe Illustrator 16.0.0, SVG Export Plug-In . SVG Version: 6.00 Build 0)  -->
<!DOCTYPE svg PUBLIC "-//W3C//DTD SVG 1.1//EN" "http://www.w3.org/Graphics/SVG/1.1/DTD/svg11.dtd">
<svg xmlns="http://www.w3.org/2000/svg" xmlns:xlink="http://www.w3.org/1999/xlink" version="1.1" id="Capa_1" x="0px" y="0px" width="512px" height="512px" viewBox="0 0 97.75 97.75" style="enable-background:new 0 0 97.75 97.75;" xml:space="preserve">
<g>
	<g>
		<path d="M39.337,38.729c0-4.611-3.137-4.611-3.137-4.611h-1.661H23.294v9.894H35.4C37.492,44.011,39.337,43.342,39.337,38.729z" fill="#FFFFFF"/>
		<path d="M36.201,50.846H23.294v11.85h12.311c1.852-0.053,5.27-0.633,5.27-5.76C40.875,50.784,36.201,50.846,36.201,50.846z" fill="#FFFFFF"/>
		<path d="M69.243,44.011c-6.849,0-7.804,6.835-7.804,6.835h14.565C76.005,50.846,76.092,44.011,69.243,44.011z" fill="#FFFFFF"/>
		<path d="M48.875,0C21.882,0,0,21.883,0,48.875S21.882,97.75,48.875,97.75S97.75,75.867,97.75,48.875S75.868,0,48.875,0z     M59.531,28.848h18.294v5.46H59.531V28.848z M50.285,57.486c0,13.533-14.084,13.088-14.084,13.088H23.294h-0.379h-9.787V26.236    h9.787h0.379H36.2c7.012,0,12.547,3.871,12.547,11.805c0,7.935-6.766,8.438-6.766,8.438C50.9,46.479,50.285,57.486,50.285,57.486z     M69.33,64.479c7.37,0,7.109-4.77,7.109-4.77h7.803c0,12.659-15.172,11.792-15.172,11.792c-18.207,0-17.036-16.95-17.036-16.95    S52.02,37.517,69.068,37.517c17.947,0,15.434,19.245,15.434,19.245H61.527C61.527,65.001,69.33,64.479,69.33,64.479z" fill="#FFFFFF"/>
	</g>
</g>
<g>
</g>
<g>
</g>
<g>
</g>
<g>
</g>
<g>
</g>
<g>
</g>
<g>
</g>
<g>
</g>
<g>
</g>
<g>
</g>
<g>
</g>
<g>
</g>
<g>
</g>
<g>
</g>
<g>
</g>
</svg>
